!!!!SEGMENT: pl-kk--kk-i-7--101_anonim--omni-die-dic-mariae.krn
!!!cenid: 16xx:940
!!!COM: Anonim
!!!COM-rismid: pe30004985
!!!CDT:
!!!CNT:
!!!OTL: Omni die dic Mariae
!!!PDT:
!!!AGN: Sacred
!!!SMS-siglum: PL-Kk
!!!SMS-shelfmark: Kk.I.7
!!!SMS-shelfwork: 101 W
!!!SMS-variant:
!!!SMS-altvar:
!!!NIFC-rismid: 300258178
!!!URL-scan: http://repozytorium.nifc.pl/skany/pl-kk-nut--i-7
!!!ONB-nifc: UWAGA: C (skan 0078, s.148), A (0156, s.132), T(0243, s.148), B(0330, s.144). Następny utwór: Caelestis urbs Jerusalem
!!!key:
**kern	**text	**text	**text	**kern	**text	**text	**text	**kern	**text	**text	**text	**kern	**text	**text	**text
*part4	*part4	*part4	*part4	*part3	*part3	*part3	*part3	*part2	*part2	*part2	*part2	*part1	*part1	*part1	*part1
*staff4	*staff4	*staff4	*staff4	*staff3	*staff3	*staff3	*staff3	*staff2	*staff2	*staff2	*staff2	*staff1	*staff1	*staff1	*staff1
*group1	*	*	*	*group1	*	*	*	*group1	*	*	*	*group1	*	*	*
*	*verse1	*verse3	*verse5	*	*verse1	*verse3	*verse5	*	*verse1	*verse3	*verse5	*	*verse1	*verse3	*verse5
*Ibass	*	*	*	*Itenor	*	*	*	*Ialto	*	*	*	*Isoprn	*	*	*
*I"BASSVS.	*	*	*	*I"TENOR.	*	*	*	*I"ALTVS.	*	*	*	*I"CANTVS.	*	*	*
*I'B	*	*	*	*I'T	*	*	*	*I'A	*	*	*	*I'S	*	*	*
*clefF4	*	*	*	*clefC4	*	*	*	*clefC3	*	*	*	*clefC4	*	*	*
*k[]	*	*	*	*k[]	*	*	*	*k[]	*	*	*	*k[]	*	*	*
*C:	*	*	*	*C:	*	*	*	*C:	*	*	*	*C:	*	*	*
*M3/2	*	*	*	*M3/2	*	*	*	*M3/2	*	*	*	*M3/2	*	*	*
=1	=1	=1	=1	=1	=1	=1	=1	=1	=1	=1	=1	=1	=1	=1	=1
!LO:TX:t=P:problem:inicjał "O" przed kluczem	!	!	!	!LO:TX:t=P:problem:inicjał "O" przed kluczem	!	!	!	!LO:TX:t=P:problem:inicjał "O" przed kluczem	!	!	!	!LO:TX:t=P:problem:inicjał "O" przed kluczem	!	!	!
1C	1. O-	3 Ip-	5 Lin-	1c	1. O-	3. Ip-	5. Lin-	1g	1 O-	3 Ip-	5. Lin-	1c	1: O-	3. Ip-	5. Lin-
*2\right	*	*	*	*2\right	*	*	*	*2\right	*	*	*	*2\right	*	*	*
2E\	-mni	-sam	-gua	2c\	-mni	-sam	-gua	2g\	-mni	-sam	-gua	2c\	-mni	-sam	-gua
=2	=2	=2	=2	=2	=2	=2	=2	=2	=2	=2	=2	=2	=2	=2	=2
1F	di-	Co-	me-	(2.c\	di-	Co-	me-	1a	di-	Co-	me-	1c	di-	co-	me-
.	.	.	.	4d\)	.	.	.	.	.	.	.	.	.	.	.
2E\	-e	-le,	-a	2e\	-e	-le	-a	2g\	-e	-le	-a	2c\	-e	-le	-a
=3	=3	=3	=3	=3	=3	=3	=3	=3	=3	=3	=3	=3	=3	=3	=3
1D	dic	ut	dic	1f	dic	ut	dic	1g	dic	ut	dic	1c	dic	ut	dic
2G\	Ma-	de	tro-	2d\	Ma-	de	Tro-	2g\	Ma-	de	Tro-	2Bn\	Ma-	de	tro-
=4	=4	=4	=4	=4	=4	=4	=4	=4	=4	=4	=4	=4	=4	=4	=4
1E	-ri-	mo-	-phae-	1e	-ri-	mo-	-phae-	1g	-ri-	mo-	-phae-	1c	-ri-	mo-	-phae-
2C/	-ae	-le	-a	2e\	-ae	-le	-a	2g\	-ae	-le	-a	2c\	-ae	-le	-a
=5	=5	=5	=5	=5	=5	=5	=5	=5	=5	=5	=5	=5	=5	=5	=5
1G	me-	Cri-	Vir-	1d	me-	Cri-	Vir-	1g	me-	Cri-	Vir-	1Bn	me-	Cri-	Vir-
2F#X\	-a	-mi-	-gi-	2A/	-a	-mi-	-gi-	2a\	-a	-mi-	-gi-	2A\	-a	-mi-	-gi-
=6	=6	=6	=6	=6	=6	=6	=6	=6	=6	=6	=6	=6	=6	=6	=6
1G	lau-	-num,	-nis	1d	lau-	-num	-nis	1g	lau-	-num	-nis	1B	lau-	-num	-nis
2C/	-des	Te	pu-	2c\	-des	Te	Pu-	2e\	-des	Te	Pu-	1A	-des	Te	Pu-
=7	=7	=7	=7	=7	=7	=7	=7	=7	=7	=7	=7	=7-	=7-	=7-	=7-
1D	a-	li-	-er-	2A\	a-	li-	-er-	1d	a-	li-	-er-	.	.	.	.
.	.	.	.	2.d\	.	.	.	.	.	.	.	2.A/	a-	li-	-er-
2D/	-ni-	-be-	-pe-	.	.	.	.	2d\	-ni-	-be-	-pe-	.	.	.	.
.	.	.	.	4c\	-ni-	-be	-pe-	.	.	.	.	4A/	-ni-	-be-	-pe-
=8	=8	=8	=8	=8	=8	=8	=8	=8	=8	=8	=8	=8-	=8-	=8-	=8-
1.GG	-ma,	-ret,	-rae	1.B	-ma	ret	-ra	1.d	-ma	-ret	-rae	1.G	-ma	-ret	-rae
=9	=9	=9	=9	=9	=9	=9	=9	=9	=9	=9	=9	=9	=9	=9	=9
1E	E-	Hanc	Quae	1B	E-	Hanc	Quae	1e	E-	Hanc	Quae	1G#X	e-	Hanc	Quae
2E\	-jus	a-	in-	2B\	-jus	a-	in-	2e\	-jus	a-	in-	2G#/	-jus	a-	in-
=10	=10	=10	=10	=10	=10	=10	=10	=10	=10	=10	=10	=10	=10	=10	=10
1A	fe-	-pel-	-flic-	1c	fe-	-pel-	-flic-	1e	fe-	-pel-	-flic-	1A	fe-	-pel-	-fli-
!	!	!	!	!LO:SIC:v:t=custos a	!	!	!	!	!	!	!	!	!	!	!
2A\	-sta	-la	-tum	2c\	-sta	-la	-tum	2e\	-sta	-la	-tum	2A\	-sta	-la	-ctum
!	!	!	!	!LO:LB:g=original	!	!	!	!	!	!	!	!	!	!	!
=11	=11	=11	=11	=11	=11	=11	=11	=11	=11	=11	=11	=11	=11	=11	=11
1D	e-	ne	ma-	1A	E-	ne	ma-	1f#X	e-	nè	ma-	2A\	e-	nè	ma-
.	.	.	.	.	.	.	.	.	.	.	.	1d	-jus	pro-	-le
2D/	-jus	pro-	-le	2A/	-jus	pro-	-le	2f#\	-jus	pro-	-le	.	.	.	.
=12	=12	=12	=12	=12	=12	=12	=12	=12	=12	=12	=12	=12	=12	=12	=12
1G	ges-	-cel-	di-	1B	ges-	-cel-	dic-	1g	ges-	-cel-	dic-	1d	ge-	-cel-	di-
!LO:SIC:v:t=custos C	!	!	!	!	!	!	!	!LO:SIC:v:t=custos g	!	!	!	!LO:SIC:v:t=custos c	!	!	!
2G\	-ta	-la	-ctum	2B\	-ta	-la	-tum	2g\	-ta	-la	-tum	2d\	-sta	-la	-ctum
!LO:LB:g=original	!	!	!	!	!	!	!	!LO:LB:g=original	!	!	!	!LO:LB:g=original	!	!	!
=13	=13	=13	=13	=13	=13	=13	=13	=13	=13	=13	=13	=13	=13	=13	=13
1C	co-	Vi-	mi-	1e	co-	Vi-	mi-	1g	co-	Vi-	mi-	1c	co-	Vi-	mi-
2C/	-le	-ti-	-ro	2e\	-le	-ti-	-ro	2e\	-le	-ti-	-ro	2c\	-le	-ti-	-ro
=14	=14	=14	=14	=14	=14	=14	=14	=14	=14	=14	=14	=14	=14	=14	=14
(2.F\	de-	-o-	tranſ-	1f	de-	-o-	tranſ-	1a	de-	-o-	tranſ-	1.c	de-	-o-	tranſ-
4G\)	.	.	.	.	.	.	.	.	.	.	.	.	.	.	.
2A\	-vo-	-rum	-fert	2e\	-vo-	-rum	-fert	2e\	-vo-	-rum	-fert	.	.	.	.
=15	=15	=15	=15	=15	=15	=15	=15	=15	=15	=15	=15	=15	=15	=15	=15
2F\	-tiſ-	su-	ger-	2f\	-tiſ-	Su-	ger-	2a\	-tiſ-	Su-	ger-	2c\	-vo-	-rum	-fert
2G\	.	.	.	2.d\	.	.	.	2.g\	.	.	.	2c\	-tiſ-	su-	ger-
2GG/	-si-	-pe-	-mi-	.	.	.	.	.	.	.	.	2B\	-si-	-pe-	-mi-
.	.	.	.	4d\	-si-	-pe-	-mi-	4f\	-si-	-pe-	-mi-	.	.	.	.
=16	=16	=16	=16	=16	=16	=16	=16	=16-	=16-	=16-	=16-	=16	=16	=16	=16
1.C	-ma	-ret.	-ne.	1.c	-ma.	-ret.	-ne.	1.e	-ma	-ret.	-ne	1.c	-ma	-ret.	-ne.
=17||	=17||	=17||	=17||	=17||	=17||	=17||	=17||	=17||	=17||	=17||	=17||	=17||	=17||	=17||	=17||
*	*verse2	*verse4	*verse6	*	*verse2	*verse4	*verse6	*	*verse2	*verse4	*verse6	*	*verse2	*verse4	*verse6
*M4/4	*	*	*	*M4/4	*	*	*	*M4/4	*	*	*	*M4/4	*	*	*
*met(c)	*	*	*	*met(c)	*	*	*	*met(c)	*	*	*	*met(c)	*	*	*
4F\	2. Con-	4. Haec	6. Si-	4c\	2. Con-	4. Haec	6. Si-	4f\	2. Con-	4 Haec	6. Si-	4A/	2. Con-	4. Haec	6. Si-
4F\	-tem-	per-	-ne	4c\	-tem-	per-	-ne	4a\	­tem-	Per-	-ne	4A/	­tem-	Per-	-ne
4E\	-pla-	-so-	fi-	4c\	-pla-	-so-	Fi-	4g\	-pla-	-ſo-	Fi-	4c\	-pla-	-so-	fi-
4C/	-re	-na	-ne	4c\	-re	-na	-ne	4e\	-re	-na	-ne	4c\	-re	-na	-ne
=18	=18	=18	=18	=18	=18	=18	=18	=18	=18	=18	=18	=18	=18	=18	=18
4c\	et	no-	dic	4e\	et	no-	dic	4g\	et	no-	dic	4c\	et	no-	dic
4c\	mi-	-bis	Re-	4e\	mi-	-bis	Re-	4g\	mi-	-bis	Re-	4e\	mi-	-bis	Re-
4A\	-ra-	do-	-gi-	4c\	-ra-	do-	-gi-	4a\	-ra-	do-	-gi-	4f\	-ra-	do-	-gi-
4F\	-re	-na	-nae	4c\	-re	-na	-nae	4a\	-re	-na	-nae	4f\	-re	-na	-nae
=19	=19	=19	=19	=19	=19	=19	=19	=19	=19	=19	=19	=19	=19	=19	=19
4B-X\	e-	con-	mun-	4d\	e-	con-	mun-	4f\	e-	con-	mun-	4d\	e	con-	mun-
4G\	-jus	-tu-	-di,	4d\	-jus	-tu-	-di	4b-X\	-jus	-tu-	-di	4d\	-jus	-tu-	-di
4c\	cel-	-lit	lau-	4e\	cel-	-lit	lau-	4g\	cel-	-lit	lau-	4c\	cel-	-lit	lau-
!	!	!	!	!LO:SIC:v:t=custos f	!	!	!	!	!	!	!	!	!	!	!
4F\	-ſi-	cae-	-dum	4f\	-ſi-	Cae-	-dum	4f\	-ſi-	Cae-	-dem	4c\	-ſi-	cae-	-dum
!	!	!	!	!LO:LB:g=original	!	!	!	!	!	!	!	!	!	!	!
=20	=20	=20	=20	=20	=20	=20	=20	=20	=20	=20	=20	=20	=20	=20	=20
4.C/	-tu-	-le-	can-	4f\	-tu-	-le-	Can-	4.g\	-tu-	-le-	can-	4.c\	-tu-	-le-	can-
.	.	.	.	4e\	-di-	-sti-	-ti-	.	.	.	.	.	.	.	.
8C/	-ri-	-ſti-	-ti-	.	.	.	.	8g\	-di-	-ſti-	-ti-	8c\	-di-	-sti-	-ti-
!	!	!	!	!	!	!	!	!LO:SIC:v:t=custos f	!	!	!	!	!	!	!
2F\	-nem	-a	-ca,	2f\	-nem	-a	-ca,	2a\	-nem	-a	-ca	2c\	-nem	-a	-ca
!	!	!	!	!	!	!	!	!LO:LB:g=original	!	!	!	!	!	!	!
=21	=21	=21	=21	=21	=21	=21	=21	=21	=21	=21	=21	=21	=21	=21	=21
4D/	dic	haec	e-	4A/	dic	Haec	e-	4f\	dic	haec	E-	4d\	dic	Haec	e-
4AA/	fe-	Re-	-jus	4A/	fe-	Re-	-jus	4e\	fe-	Re-	-jus	4c#X\	fe-	Re-	-jus
4D/	-li-	-gi-	bo-	4A/	-li-	-gi-	bo-	4f\	-li-	-gi-	bo-	4d\	-li-	-gi-	bo-
!LO:SIC:v:t=custos A	!	!	!	!	!	!	!	!	!	!	!	!LO:SIC:v:t=custos c	!	!	!
4D/	-cem	-na	-na	4A/	-cem	-na	-na	4f\	-cem	-na	-na	4d\	-cem	-na	-na
!LO:LB:g=original	!	!	!	!	!	!	!	!	!	!	!	!LO:LB:g=original	!	!	!
=22	=22	=22	=22	=22	=22	=22	=22	=22	=22	=22	=22	=22	=22	=22	=22
4A\	Ge-	Nos	sem-	4c\	Ge-	nos	sem-	4e\	Ge-	nos	sem-	4c\	Ge-	nos	sem-
4E\	-ni-	Di-	-per	4B\	-ni-	di-	-per	4e\	-ni-	di-	-per	4e\	-ni-	di-	-per
4A\	-tri-	-vi-	so-	4c\	-tri-	-vi-	so-	4e\	-tri-	-vi-	so-	4c\	-tri-	-vi-	so-
4A\	-cem	-na	-na,	4c\	-cem	-na	-na,	4e\	-cem	-na	-na	4A/	-cem	-na	-na
=23	=23	=23	=23	=23	=23	=23	=23	=23	=23	=23	=23	=23	=23	=23	=23
4F\	dic	il-	sem-	4c\	dic	il-	sem-	4f\	dic	il-	sem-	4A\	dic	il-	sem-
4A\	be-	-luſ-	-per	4c\	be-	-lu-	-per	4f\	be-	-luſ-	-per	4cnX\	be-	-lu-	-per
4B-X\	-a-	-tra-	il-	4d\	-a-	-ſtra-	il-	4f\	-a-	-tra-	il-	4B-X\	-a-	-ſtra-	il-
4F\	-tam	-vit	-las	4c\	-tam	-vit	-la	4f\	-tam	-vit	-la	4A/	-tam	-vit	-la
=24	=24	=24	=24	=24	=24	=24	=24	=24	=24	=24	=24	=24	=24	=24	=24
4.c\	Vir-	gra-	prae-	4.c\	Vir-	gra-	prae-	4.f\	Vir-	gra-	prae-	4.c\	Vir-	gra-	prae-
!	!	!	!	!	!	!	!	!	!	!	!	!LO:TX:a:t=P:problem:♭ above	!	!	!
8C/	-gi-	-ti-	-di-	8c\	-gi-	-ti-	-di-	8e\	-gi-	-ti-	-di-	8B-X\	-gi-	-ti-	-di-
2F\	-nem	-a	-ca,	2c\	-nem	-a	-ca	2f\	-nem	-a	-ca	2A/	-nem	-a	-ca
=25	=25	=25	=25	=25	=25	=25	=25	=25	=25	=25	=25	=25	=25	=25	=25
4C/	dic	il-	sem-	4e\	dic	il-	sem-	4g\	dic	il-	sem-	4c\	dic	il-	sem-
4E\	be-	-luſ-	-per	4c\	be-	-lu-	-per	4g\	be-	-luſ-	-per	4G/	be-	-lu-	-per
4F\	-a-	-tra-	il-	4f\	-a-	-ſtra-	il-	4f\	-a-	-tra-	il-	4A\	-a-	-stra-	il-
4C/	-tam	-vit	-la	4e\	-tam	-vit	-la	4g\	-tam	-vit	-la	4c\	-tam	-vit	-la
=26	=26	=26	=26	=26	=26	=26	=26	=26	=26	=26	=26	=26	=26	=26	=26
4.G\	Vir-	gra-	prae-	4.d\	Vir-	gra-	prae-	4.g\	Vir-	gra-	prae-	4c\	Vir-	gra-	prae-
.	.	.	.	.	.	.	.	.	.	.	.	4Bn\	-gi-	-ti-	-di-
8GG/	-gi-	-ti-	-di-	8d\	-gi-	-ti-	-di-	8g\	-gi-	-ti-	-di-	.	.	.	.
2C/	-nem	-a.	-ca.	2e\	-nem	-a.	-ca.	2g\	-nem.	-a	-ca.	2c\	-nem	-a.	-ca.
==	==	==	==	==	==	==	==	==	==	==	==	==	==	==	==
*-	*-	*-	*-	*-	*-	*-	*-	*-	*-	*-	*-	*-	*-	*-	*-
!!!system-decoration: [g1]
!!!RDF**kern: > = above
!!!RDF**kern: < = below
!!!AIN: 1 alto 1 bass 1 soprn 1 tenor
!!!ENC: Andrzej Kubiczek
!!!END: 2021-03-20
!!!ENC: Mateusz Solarz
!!!END: 2021-03-05
